packages/kaspersky-hexa-ui-icons/src/iconsSVGs/48/Tools.svg

<svg xmlns="http://www.w3.org/2000/svg" width="48" height="48" fill="none" viewBox="0 0 48 48"><path fill="currentColor" fill-rule="evenodd" d="M40.244 40.244c-.552 0-1-.448-1-1s.448-1 1-1 1 .448 1 1-.448 1-1 1m0-4c-1.654 0-3 1.346-3 3s1.346 3 3 3 3-1.346 3-3-1.346-3-3-3m-25.257-3.129 1.414 1.414L8.91 42.02l-1.414-1.414zm-1.099-1.1-7.493 7.492-1.414-1.414 7.492-7.492zm29.338 10.833c-1.646 1.321-4.12 1.304-5.754-.041-.968-.795-1.561-1.914-1.668-3.149-.153-1.748-.838-3.277-1.982-4.422l-9.239-9.238 2.54-2.541 9.24 9.241c1.155 1.156 2.699 1.857 4.347 1.974 1.098.078 2.132.551 2.911 1.329.922.923 1.41 2.2 1.338 3.503-.073 1.32-.689 2.508-1.733 3.344m-22.65-17.2L42.034 4.19l.654.111.11.653L21.34 26.412zm1.295 4.124c.252.252.253.662.001.914h-.001c-.242.245-.669.245-.913 0l-1.095-1.094-2.578 2.578.707.707c.465.466.465 1.224 0 1.69l-8.269 8.268c-1.535 1.535-4.035 1.535-5.57 0-1.535-1.536-1.535-4.034 0-5.57l8.269-8.268c.225-.226.525-.351.844-.351s.62.125.845.351l.707.707 2.577-2.577-1.093-1.097c-.252-.252-.251-.662 0-.914a.647.647 0 0 1 .914 0zm-4.746-11.233c-1.568-1.566-3.847-2.165-6.081-1.61-1.098.273-2.214.137-3.316-.402-1.218-.597-2.909-2.099-3.847-4.018l3.917 1.92 4.684-3.177-.359-5.649-3.946-1.934c2.164-.464 4.406.028 5.562.594 2.739 1.342 2.903 3.942 2.758 5.372-.188 1.844.471 3.668 1.806 5.002l5.228 5.228-2.54 2.54zm27.91 16.048a6.568 6.568 0 0 0-4.183-1.909c-1.168-.083-2.259-.579-3.075-1.394l-9.24-9.241L44.94 5.64l-.515-3.076-3.077-.516-16.403 16.403-5.228-5.228c-.909-.908-1.357-2.142-1.23-3.385.337-3.314-1.072-6-3.868-7.371-1.968-.963-6.105-1.701-9.439.225l-1.624.939 6.645 3.258.213 3.349-2.778 1.884L1 8.87l.257 1.861c.526 3.818 3.632 6.631 5.591 7.592 1.515.74 3.13.93 4.679.547 1.557-.387 3.118.018 4.184 1.083l3.866 3.866-.415.415-.532-.532c-1.032-1.031-2.71-1.031-3.743 0-.857.858-1.001 2.164-.433 3.172-1.144-.458-2.553-.187-3.446.709L2.739 35.85c-2.315 2.316-2.315 6.083 0 8.399 1.158 1.158 2.679 1.737 4.199 1.736 1.521 0 3.042-.579 4.2-1.736l8.268-8.268c.93-.93 1.165-2.296.706-3.446.993.563 2.346.394 3.174-.435 1.031-1.031 1.031-2.71 0-3.742l-.532-.532.415-.414 9.239 9.238c.807.808 1.292 1.908 1.403 3.182.155 1.774 1.003 3.38 2.39 4.52 1.205.992 2.69 1.488 4.175 1.488 1.454 0 2.909-.477 4.1-1.432 1.472-1.178 2.376-2.925 2.48-4.793.103-1.871-.597-3.704-1.921-5.028" clip-rule="evenodd"/></svg>

<svg width="48" height="48" viewBox="0 0 48 48" fill="none" xmlns="http://www.w3.org/2000/svg">
<path fill-rule="evenodd" clip-rule="evenodd" d="M40.244 40.244C39.692 40.244 39.244 39.796 39.244 39.244C39.244 38.692 39.692 38.244 40.244 38.244C40.796 38.244 41.244 38.692 41.244 39.244C41.244 39.796 40.796 40.244 40.244 40.244ZM40.244 36.244C38.59 36.244 37.244 37.59 37.244 39.244C37.244 40.898 38.59 42.244 40.244 42.244C41.898 42.244 43.244 40.898 43.244 39.244C43.244 37.59 41.898 36.244 40.244 36.244ZM14.987 33.115L16.401 34.529L8.91 42.02L7.496 40.606L14.987 33.115ZM13.888 32.015L6.395 39.507L4.981 38.093L12.473 30.601L13.888 32.015ZM43.226 42.848C41.58 44.169 39.106 44.152 37.472 42.807C36.504 42.012 35.911 40.893 35.804 39.658C35.651 37.91 34.966 36.381 33.822 35.236L24.583 25.998L27.123 23.457L36.363 32.698C37.518 33.854 39.062 34.555 40.71 34.672C41.808 34.75 42.842 35.223 43.621 36.001C44.543 36.924 45.031 38.201 44.959 39.504C44.886 40.824 44.27 42.012 43.226 42.848ZM20.576 25.648L42.034 4.19001L42.688 4.30101L42.798 4.95401L21.34 26.412L20.576 25.648ZM21.871 29.772C22.123 30.024 22.124 30.434 21.872 30.686H21.871C21.629 30.931 21.202 30.931 20.958 30.686L19.863 29.592L17.285 32.17L17.992 32.877C18.457 33.343 18.457 34.101 17.992 34.567L9.723 42.835C8.188 44.37 5.688 44.37 4.153 42.835C2.618 41.299 2.618 38.801 4.153 37.265L12.422 28.997C12.647 28.771 12.947 28.646 13.266 28.646C13.585 28.646 13.886 28.771 14.111 28.997L14.818 29.704L17.395 27.127L16.302 26.03C16.05 25.778 16.051 25.368 16.302 25.116C16.554 24.864 16.964 24.864 17.216 25.116L21.871 29.772ZM17.125 18.539C15.557 16.973 13.278 16.374 11.044 16.929C9.946 17.202 8.83 17.066 7.728 16.527C6.51 15.93 4.819 14.428 3.881 12.509L7.798 14.429L12.482 11.252L12.123 5.60301L8.177 3.66901C10.341 3.20501 12.583 3.69701 13.739 4.26301C16.478 5.60501 16.642 8.20501 16.497 9.63501C16.309 11.479 16.968 13.303 18.303 14.637L23.531 19.865L20.991 22.405L17.125 18.539ZM45.035 34.587C43.916 33.468 42.431 32.789 40.852 32.678C39.684 32.595 38.593 32.099 37.777 31.284L28.537 22.043L44.94 5.64001L44.425 2.56401L41.348 2.04801L24.945 18.451L19.717 13.223C18.808 12.315 18.36 11.081 18.487 9.83801C18.824 6.52401 17.415 3.83801 14.619 2.46701C12.651 1.50401 8.514 0.766006 5.18 2.69201L3.556 3.63101L10.201 6.88901L10.414 10.238L7.636 12.122L1 8.87001L1.257 10.731C1.783 14.549 4.889 17.362 6.848 18.323C8.363 19.063 9.978 19.253 11.527 18.87C13.084 18.483 14.645 18.888 15.711 19.953L19.577 23.819L19.162 24.234L18.63 23.702C17.598 22.671 15.92 22.671 14.887 23.702C14.03 24.56 13.886 25.866 14.454 26.874C13.31 26.416 11.901 26.687 11.008 27.583L2.739 35.85C0.424 38.166 0.424 41.933 2.739 44.249C3.897 45.407 5.418 45.986 6.938 45.985C8.459 45.985 9.98 45.406 11.138 44.249L19.406 35.981C20.336 35.051 20.571 33.685 20.112 32.535C21.105 33.098 22.458 32.929 23.286 32.1C24.317 31.069 24.317 29.39 23.286 28.358L22.754 27.826L23.169 27.412L32.408 36.65C33.215 37.458 33.7 38.558 33.811 39.832C33.966 41.606 34.814 43.212 36.201 44.352C37.406 45.344 38.891 45.84 40.376 45.84C41.83 45.84 43.285 45.363 44.476 44.408C45.948 43.23 46.852 41.483 46.956 39.615C47.059 37.744 46.359 35.911 45.035 34.587Z"  fill="currentColor"/>
</svg>
